src/resources/logo.svg

<svg xmlns="http://www.w3.org/2000/svg" xmlns:svg="http://www.w3.org/2000/svg" id="svg49" width="48" height="48" version="1.1"><metadata id="metadata53"/><defs id="defs25"><linearGradient id="color-1" x1="11.084" x2="64.958" y1="13.364" y2="62.679" gradientUnits="userSpaceOnUse"><stop id="stop2" offset="0" stop-color="#000" stop-opacity=".3"/><stop id="stop4" offset="1" stop-color="#000" stop-opacity="0"/></linearGradient><filter id="dropshadow-base"><feColorMatrix id="feColorMatrix7" type="matrix" values="0 0 0 0 0 0 0 0 0 0 0 0 0 0 0 0 0 0 .8 0"/><feOffset id="feOffset9" dx="0" dy="1"/><feGaussianBlur id="feGaussianBlur11" result="result1" stdDeviation="1"/><feComposite id="feComposite13" in="SourceGraphic" in2="result1"/></filter><filter id="dropshadow-banner" width="120%" height="130%" x="-10%" y="-10%"><feColorMatrix id="feColorMatrix16" type="matrix" values="0 0 0 0 0 0 0 0 0 0 0 0 0 0 0 0 0 0 .4 0"/><feOffset id="feOffset18" dx="0" dy="1"/><feGaussianBlur id="feGaussianBlur20" result="result1" stdDeviation=".5"/><feComposite id="feComposite22" in="SourceGraphic" in2="result1"/></filter></defs><g stroke-miterlimit="10" style="mix-blend-mode:normal" id="g47" fill="none" fill-rule="nonzero" stroke="none" stroke-dashoffset="0" stroke-linecap="butt" stroke-linejoin="miter" stroke-width="none" font-family="none" font-size="none" font-weight="none" text-anchor="none"><path id="base 1 5 1" fill="#9c27b0" stroke-width="1" d="M7,43c-1.10457,0 -2,-0.89543 -2,-2v-34c0,-1.10457 0.89543,-2 2,-2h34c1.10457,0 2,0.89543 2,2v34c0,1.10457 -0.89543,2 -2,2z"/><path id="path28" fill="url(#color-1)" stroke-width="1" d="M11.08449,20.96106h6.07788l6.07788,6.07788h3.03894l-7.59736,-7.59736v-6.07788l18.23367,0l6.08449,6.08449v21.55181c0,1.10457 -0.89543,2 -2,2h-21.55181l-8.3637,-8.3637v-6.07788l1.51947,0l-1.51947,-1.51947z"/><path id="path30" fill="none" stroke-width="0" d="M11.08449,27.03894h6.07789v-6.07789h-6.07789zM11.08449,34.6363h6.07789v-6.07789h-6.07789zM11.08449,19.44158h6.07789v-6.07789h-6.07789zM18.68185,27.03894h18.23366v-6.07789h-18.23366zM18.68185,34.6363h18.23366v-6.07789h-18.23366zM18.68185,13.3637v6.07789h18.23366v-6.07789z"/><path id="path32" fill="#fafafa" stroke-width="0" d="M11.08449,20.96106h6.07789v6.07789h-6.07789zM11.08449,28.55842h6.07789v6.07789h-6.07789zM11.08449,13.3637h6.07789v6.07789h-6.07789zM18.68185,20.96106h18.23366v6.07789h-18.23366zM18.68185,28.55842h18.23366v6.07789h-18.23366zM36.91551,13.3637v6.07789h-18.23366v-6.07789z"/><path id="base 1 1 1" fill="none" stroke-width="1" d="M2,24c0,-12.15026 9.84974,-22 22,-22c12.15026,0 22,9.84974 22,22c0,12.15026 -9.84974,22 -22,22c-12.15026,0 -22,-9.84974 -22,-22z"/><rect id="rect37" width="44" height="22" x="2" y="2" fill="none" stroke-width="1"/><path id="path39" fill="none" stroke-width="1" d="M2,24v-22h44v22z"/><path id="path41" fill="none" stroke-width="1" d="M2,24v-22h44v22z"/><path id="path43" fill="none" stroke-width="1" d="M2,24v-22h44v22z"/><path id="path45" fill="none" stroke-width="1" d="M2,24v-22h44v22z"/></g></svg>

<?xml version="1.0" encoding="UTF-8" standalone="no"?>
<svg
   xmlns:dc="http://purl.org/dc/elements/1.1/"
   xmlns:cc="http://creativecommons.org/ns#"
   xmlns:rdf="http://www.w3.org/1999/02/22-rdf-syntax-ns#"
   xmlns:svg="http://www.w3.org/2000/svg"
   xmlns="http://www.w3.org/2000/svg"
   xmlns:sodipodi="http://sodipodi.sourceforge.net/DTD/sodipodi-0.dtd"
   xmlns:inkscape="http://www.inkscape.org/namespaces/inkscape"
   id="svg49"
   width="44"
   height="44"
   version="1.1"
   sodipodi:docname="logo.svg"
   inkscape:version="0.92.4 (5da689c313, 2019-01-14)"
   inkscape:export-filename="/home/aidan/projects/js/notes/public/logo192.png"
   inkscape:export-xdpi="418.90909"
   inkscape:export-ydpi="418.90909">
  <sodipodi:namedview
     pagecolor="#ffffff"
     bordercolor="#666666"
     borderopacity="1"
     objecttolerance="10"
     gridtolerance="10"
     guidetolerance="10"
     inkscape:pageopacity="0"
     inkscape:pageshadow="2"
     inkscape:window-width="1920"
     inkscape:window-height="1021"
     id="namedview29"
     showgrid="false"
     inkscape:zoom="4.9166667"
     inkscape:cx="-4.2372881"
     inkscape:cy="22"
     inkscape:window-x="0"
     inkscape:window-y="0"
     inkscape:window-maximized="1"
     inkscape:current-layer="g47"
     fit-margin-top="0"
     fit-margin-left="0"
     fit-margin-right="0"
     fit-margin-bottom="0" />
  <metadata
     id="metadata53">
    <rdf:RDF>
      <cc:Work
         rdf:about="">
        <dc:format>image/svg+xml</dc:format>
        <dc:type
           rdf:resource="http://purl.org/dc/dcmitype/StillImage" />
        <dc:title></dc:title>
      </cc:Work>
    </rdf:RDF>
  </metadata>
  <defs
     id="defs25">
    <linearGradient
       id="color-1"
       x1="11.084"
       x2="64.958"
       y1="13.364"
       y2="62.679001"
       gradientUnits="userSpaceOnUse">
      <stop
         id="stop2"
         offset="0"
         stop-color="#000"
         stop-opacity=".3" />
      <stop
         id="stop4"
         offset="1"
         stop-color="#000"
         stop-opacity="0" />
    </linearGradient>
  </defs>
  <g
     stroke-miterlimit="10"
     style="font-family:none;mix-blend-mode:normal;fill:none;fill-rule:nonzero;stroke:none;stroke-linecap:butt;stroke-linejoin:miter;stroke-miterlimit:10;stroke-dashoffset:0"
     id="g47"
     stroke-width="none"
     font-size="none"
     font-weight="none"
     text-anchor="none"
     transform="translate(-2,-2)">
    <path
       id="base 1 5 1"
       d="M 7,43 C 5.89543,43 5,42.10457 5,41 V 7 C 5,5.89543 5.89543,5 7,5 h 34 c 1.10457,0 2,0.89543 2,2 v 34 c 0,1.10457 -0.89543,2 -2,2 z"
       inkscape:connector-curvature="0"
       style="fill:#9c27b0;stroke-width:1" />
    <path
       id="path28"
       d="m 11.08449,20.96106 h 6.07788 l 6.07788,6.07788 h 3.03894 L 18.68183,19.44158 V 13.3637 H 36.9155 l 6.08449,6.08449 V 41 c 0,1.10457 -0.89543,2 -2,2 H 19.44818 l -8.3637,-8.3637 v -6.07788 h 1.51947 l -1.51947,-1.51947 z"
       inkscape:connector-curvature="0"
       style="fill:url(#color-1);stroke-width:1" />
    <path
       id="path30"
       d="m 11.08449,27.03894 h 6.07789 v -6.07789 h -6.07789 z m 0,7.59736 h 6.07789 v -6.07789 h -6.07789 z m 0,-15.19472 h 6.07789 v -6.07789 h -6.07789 z m 7.59736,7.59736 H 36.91551 V 20.96105 H 18.68185 Z m 0,7.59736 H 36.91551 V 28.55841 H 18.68185 Z m 0,-21.2726 v 6.07789 H 36.91551 V 13.3637 Z"
       inkscape:connector-curvature="0"
       style="fill:none;stroke-width:0" />
    <path
       id="path32"
       d="m 11.08449,20.96106 h 6.07789 v 6.07789 h -6.07789 z m 0,7.59736 h 6.07789 v 6.07789 h -6.07789 z m 0,-15.19472 h 6.07789 v 6.07789 h -6.07789 z m 7.59736,7.59736 h 18.23366 v 6.07789 H 18.68185 Z m 0,7.59736 h 18.23366 v 6.07789 H 18.68185 Z M 36.91551,13.3637 v 6.07789 H 18.68185 V 13.3637 Z"
       inkscape:connector-curvature="0"
       style="fill:#fafafa;stroke-width:0" />
    <path
       id="base 1 1 1"
       d="M 2,24 C 2,11.84974 11.84974,2 24,2 36.15026,2 46,11.84974 46,24 46,36.15026 36.15026,46 24,46 11.84974,46 2,36.15026 2,24 Z"
       inkscape:connector-curvature="0"
       style="fill:none;stroke-width:1" />
    <rect
       id="rect37"
       width="44"
       height="22"
       x="2"
       y="2"
       style="fill:none;stroke-width:1" />
    <path
       id="path39"
       d="M 2,24 V 2 h 44 v 22 z"
       inkscape:connector-curvature="0"
       style="fill:none;stroke-width:1" />
    <path
       id="path41"
       d="M 2,24 V 2 h 44 v 22 z"
       inkscape:connector-curvature="0"
       style="fill:none;stroke-width:1" />
    <path
       id="path43"
       d="M 2,24 V 2 h 44 v 22 z"
       inkscape:connector-curvature="0"
       style="fill:none;stroke-width:1" />
    <path
       id="path45"
       d="M 2,24 V 2 h 44 v 22 z"
       inkscape:connector-curvature="0"
       style="fill:none;stroke-width:1" />
  </g>
</svg>
